X: 30112
T: Old Black Guard, The
R: barndance
M: 4/4
K: Gmajor
|:(3def|g2 B2 d2 e>d|c2 F2 A2- A>G|F>GA>B c>de>f|(3gba (3gfe d2 (3def|
g2 B2 d2 e>d|c2 F2 A2 A>G|F>GA>B c>de>f|g2 b2 g2:|
|:d>B|G>A (3Bcd g>fa>g|f2 e2 c2- c>e|f2 e2 c>Bc>d|e2 d2 B>cB>A|
G>AB>d g>fa>g|f2 e2 c2 a>b|c>ba>g f>de>f|g2 d2 G2:|

